X:1 
T:Only Remembered 
M:4/4 
L:1/8 
C:Ira D. Sankey 
S:Gospel Hymns Nos.1 to 6 Complete, no. 534 
K:Eb 
B2=A3/2 B/e2B G|B2A3/2 F/ AG3|c2d3/2 d/e2B c| 
d2c3/2 c/B4|B2=A3/2 B/e2B G|B2A3/2 F/ AG3| 
c2d3/2 d/e2B A|G2F3/2 E/E4|| 
F2F3/2 G/ AA2z|G2G3/2 A/ BB2z|B2=A3/2 B/ cd e e| 
d2c3/2 c/B4|B2=A3/2 B/ e2B G|B2A3/2 F/ AG3| 
c2d3/2 d/ e2B A|G2F3/2 E/ E4|]
